X:1
T:Title
%%score ( 1 2 ) ( 3 4 )
L:1/8
Q:1/4=105
M:4/4
K:Db
V:1 treble nm="Grand Piano, Soprano"
V:2 treble 
V:3 bass nm="Choir Pad, The Book My Mother Read"
V:4 bass 
V:1
 DF A2 A2 A2 | A2 [FA]6 | FA d2 d2 d2 | d2 [Fd]6 | dc B2 d2 A2 | [FB]2 [FA]4 G2 | z2 F4 z2 | %7
w: By~Charles~Hutchinson~Gabriel * * * *|||||||
 z2 A6 | DF A2 A2 A2 | A2 [FA]6 | FA d2 d2 d2 | d2 [Fd]6 | [Fd][Ge] [Af]2- [Af][Ge] [Fd]2 | %13
w: ||||||
 [GB]2 [FA]4 [GB]2 | z2 F4 .E2 | z8 | z2 [GB]2 [GB]2 B2- | B-[GB] A2 [DA]2 [DA]2- | %18
w: |||||
 [DA]2 [D=G]2- [DG][EG] [EA]2 | z4 z2 A2 | z8 | z8 | z8 | z8 | z8 |] %25
w: |||||||
V:2
 x8 | x8 | x8 | x8 | z2 G4 z2 | x8 | [CA]2 D2- D-[DF] E2 | D2 [CE]2 [DF]2 [EG]2 | x8 | x8 | x8 | %11
 x8 | x8 | x8 | [Dd]2 D2- D-[DF]C-[CE]- | [CE]2 D6 | z4 z2 G2- | G z z2 z4 | x8 | %19
 [EB]2 [Ec]2 [Ec]2 c2- | [Gc]2 [Fd]2 [Fd]2 [Fd]2- | [Fd][Ge] [Af]2 [Fd]2 [FA]2- | %22
 [FA]2 [GB]2 [Dd]2 [DA]2- | [DA]D [DF]2 [CE]2 D2- | D6 z2 |] %25
V:3
 z2 D,2 [F,A,D]2 [E,A,C]2 | [G,A,E]2 D,2 [F,A,D]2 [F,A,D]2 | z2 D,2 [F,A,D]2 [E,G,D]2 | %3
 [G,B,D]2 D,2 [F,A,D]2 [F,A,D]2 | z2 D2 C2 [F,D]2 | z4 z2 _A,2- | A,2 A,6 | [B,,=G,]2 [A,,A,]6 | %8
 z2 D,2 [F,A,D]2 [E,A,C]2 | [G,A,E]2 D,2 [F,A,D]2 [F,A,D]2 | z2 D,2 [F,A,D]2 [E,G,D]2 | %11
 [G,B,D]2 D,2 [F,A,D]2 [F,A,D]2 | z2 D,2 [F,A,D]2 D,2 | [G,B,D]2 D,2 [F,A,D]2 [G,D]2 | %14
 [=G,B,]2 A,4 [A,,_G,]2- | [A,,G,]2 [D,F,]6 | z2 [G,D]2 [G,D]2 D2- | D-[G,D] [F,D]2 [F,D]2 D2- | %18
 [F,D]2 [E,B,]2- [E,B,][D,B,] [C,A,]2 | [B,,=G,]2 [A,,A,]2 [_G,A,]2 A,2- | %20
 [E,A,]2 [D,A,]2 [D,A,]2 [D,A,]2- | [D,A,][D,A,] [D,D]2 [D,A,]2 [D,D]2- | %22
 [D,D]2 [G,D]2 [G,B,]2 [F,D]2- | [F,D][G,B,] A,2 [A,,G,]2 [D,F,]2- | [D,F,]6 z2 |] %25
V:4
 x8 | x8 | x8 | x8 | z2 G,4 z2 | [=D,B,]2 [E,B,]2 [_D,=A,]2 C,2 | A,,2 D,4 C,2 | x8 | x8 | x8 | %10
 x8 | x8 | x8 | x8 | x8 | x8 | z4 z2 G,2- | G, z z2 z2 F,2 | x8 | z4 z2 F,2 | x8 | x8 | x8 | x8 | %24
 x8 |] %25

